Catalina-dark/actions/22/media-playlist-repeat-amarok.svg

<svg xmlns="http://www.w3.org/2000/svg" viewBox="0 0 22 22">
  <defs id="defs3051">
    <style type="text/css" id="current-color-scheme">
      .ColorScheme-Text {
        color:#f2f2f2
      }
      </style>
  </defs>
 <path 
     style="fill:currentColor;fill-opacity:1;stroke:none"      
	 class="ColorScheme-Text"
        d="M 4.5 3 C 3.6715787 3 3.0000083 3.6715704 3 4.5 C 3.0000083 5.3284296 3.6715787 6 4.5 6 C 5.3284213 6 5.9999917 5.3284296 6 4.5 C 5.9999917 3.6715704 5.3284213 3 4.5 3 z M 7 4 L 7 5 L 8 5 L 8 4 L 7 4 z M 9 4 L 9 5 L 19 5 L 19 4 L 9 4 z M 9 6 L 9 7 L 12 7 L 12 6 L 9 6 z M 4.5 9 C 3.6715732 8.9999988 3 9.6715721 3 10.5 C 3 11.328428 3.6715732 12.000001 4.5 12 C 5.3284268 12.000001 6 11.328428 6 10.5 C 6 9.6715721 5.3284268 8.9999988 4.5 9 z M 7 10 L 7 11 L 8 11 L 8 10 L 7 10 z M 9 10 L 9 11 L 19 11 L 19 10 L 9 10 z M 9 12 L 9 13 L 10 13 L 10 12 L 9 12 z M 11 13 L 11 18 L 12 18 L 12 14 L 18 14 L 18 17 L 16 17 L 16 16 L 13 17.5 L 16 19 L 16 18 L 19 18 L 19 17 L 19 13 L 11 13 z M 4.5 15 C 3.6715732 14.999999 3 15.671572 3 16.5 C 3 17.328428 3.6715732 18.000001 4.5 18 C 5.3284268 18.000001 6 17.328428 6 16.5 C 6 15.671572 5.3284268 14.999999 4.5 15 z M 7 16 L 7 17 L 8 17 L 8 16 L 7 16 z "
     />
</svg>

<svg viewBox="0 0 22 22" xmlns="http://www.w3.org/2000/svg">
<defs>
<style id="current-color-scheme" type="text/css">.ColorScheme-Text {
        color:#dedede
      }</style>
</defs>
<path class="ColorScheme-Text" d="m4.5 3c-0.82842 0-1.5 0.67157-1.5 1.5 8.3e-6 0.82843 0.67158 1.5 1.5 1.5s1.5-0.67157 1.5-1.5c-8.3e-6 -0.82843-0.67158-1.5-1.5-1.5zm2.5 1v1h1v-1h-1zm2 0v1h10v-1h-10zm0 2v1h3v-1h-3zm-4.5 3c-0.82843-1.2e-6 -1.5 0.67157-1.5 1.5 0 0.82843 0.67157 1.5 1.5 1.5 0.82843 1e-6 1.5-0.67157 1.5-1.5 0-0.82843-0.67157-1.5-1.5-1.5zm2.5 1v1h1v-1h-1zm2 0v1h10v-1h-10zm0 2v1h1v-1h-1zm2 1v5h1v-4h6v3h-2v-1l-3 1.5 3 1.5v-1h3v-1-4h-8zm-6.5 2c-0.82843-1e-6 -1.5 0.67157-1.5 1.5s0.67157 1.5 1.5 1.5c0.82843 1e-6 1.5-0.67157 1.5-1.5s-0.67157-1.5-1.5-1.5zm2.5 1v1h1v-1h-1z" fill="currentColor"/>
</svg>
